.local/share/icons/Gruvbox-Plus-Dark/panel/22/tvtrusted.svg

<svg xmlns="http://www.w3.org/2000/svg" width="22" height="22" version="1.1">
 <defs>
  <style id="current-color-scheme" type="text/css">
   .ColorScheme-Text { color:#ebdbb2; } .ColorScheme-Highlight { color:#458588; }
  </style>
 </defs>
 <path style="fill:currentColor;opacity:0.3" class="ColorScheme-Text" d="M 3.800781,4.9999999 C 3.357581,4.9999999 3,5.3575809 3,5.8007809 V 16.199219 C 3,16.642419 3.357581,17 3.800781,17 H 7 v 0.199219 C 7,17.642419 7.357581,18 7.800781,18 h 6.398438 C 14.642419,18 15,17.642419 15,17.199219 V 17 h 3.199219 C 18.642419,17 19,16.642419 19,16.199219 V 5.8007809 C 19,5.357581 18.642419,4.9999999 18.199219,4.9999999 Z M 5,7 h 12 v 8 H 5 Z"/>
</svg>

<svg width="22" height="22" version="1.1" xmlns="http://www.w3.org/2000/svg">
  <defs>
    <style id="current-color-scheme" type="text/css">.ColorScheme-Text { color:#ebdbb2; } .ColorScheme-Highlight { color:#458588; } .ColorScheme-NeutralText { color:#fe8019; } .ColorScheme-PositiveText { color:#689d6a; } .ColorScheme-NegativeText { color:#fb4934; }</style>
  </defs>
  <path class="ColorScheme-Text" d="m3.801 5c-0.4432 0-0.8008 0.3576-0.8008 0.8008v10.4c0 0.4432 0.3576 0.8008 0.8008 0.8008h3.199v0.1992c0 0.4432 0.3576 0.8008 0.8008 0.8008h6.398c0.4432 0 0.8008-0.3576 0.8008-0.8008v-0.1992h3.199c0.4432 0 0.8008-0.3576 0.8008-0.8008v-10.4c0-0.4432-0.3576-0.8008-0.8008-0.8008zm1.199 2h12v8h-12z" fill="currentColor" opacity=".3"/>
</svg>
